src/assets/svgs/stone.svg

<svg width="199" height="199" viewBox="0 0 199 199" fill="none" xmlns="http://www.w3.org/2000/svg">
<path d="M144.543 30.7422C145.354 31.1573 146.165 31.5724 147 32C147.718 32.2914 148.436 32.5827 149.176 32.8828C156.587 36.0775 163.179 41.4753 166.445 48.961C168.078 54.9636 165.769 60.6674 163 66C160.12 69.4233 157.821 70.6815 153.5 71.75C152.562 71.9924 151.623 72.2347 150.656 72.4844C148 73 148 73 144 73C144 73.66 144 74.32 144 75C145.134 74.9382 146.269 74.8763 147.438 74.8125C151.988 75.3683 153.776 77.5321 156.625 81C160.289 85.8584 163.757 90.8501 167 96C164.495 100.76 164.495 100.76 161.938 102C159.211 103.407 158.987 105.181 158 108C157.34 108.66 156.68 109.32 156 110C149.908 109.807 145.446 107.477 140.188 104.563C139.044 103.951 139.044 103.951 137.877 103.326C130.412 99.2804 130.412 99.2804 129.148 95.3555C128.893 94.3101 128.638 93.2646 128.375 92.1875C128.115 91.1498 127.854 90.1121 127.586 89.043C126.282 82.2693 126.282 82.2693 128.391 78.543C129.311 77.377 129.311 77.377 130.25 76.1875C130.853 75.3973 131.457 74.6071 132.078 73.793C134 72 134 72 138 72C137.264 71.7899 136.528 71.5798 135.77 71.3633C131.224 69.7482 127.931 68.3632 125.156 64.3008C121.832 56.4451 119.511 47.3378 122 39C127.446 31.479 135.643 27.0154 144.543 30.7422ZM135.25 41.9375C132.602 43.9218 132.602 43.9218 132.5 47.75C132.805 51.9989 133.765 55.3228 136 59C140.438 61.989 143.075 62.251 148.313 61.3125C151.454 60.6053 152.691 60.3087 155 58C155.926 55.6328 155.926 55.6328 156 53C152.801 47.2543 148.127 43.9652 142 42C140.948 41.5669 140.948 41.5669 139.875 41.125C137.813 40.8668 137.813 40.8668 135.25 41.9375ZM139 85C138.679 88.6993 138.679 88.6993 140 92C143.792 94.4938 147.81 96.2749 152 98C152.33 97.01 152.66 96.02 153 95C150.923 91.1051 148.18 86.8696 143.973 85.1914C141.878 84.8637 141.878 84.8637 139 85Z" fill="url(#paint0_linear_4723_496)"/>
<path d="M86.7736 105.75C87.6321 106.493 88.4906 107.235 89.3751 108C90.6861 109.114 90.6861 109.114 92.0236 110.25C93.002 111.116 93.002 111.116 94.0001 112C92.5315 117.752 90.947 123.474 89.1251 129.125C88.839 130.035 88.5528 130.945 88.258 131.883C87.0001 134 87.0001 134 84.8556 134.801C81.2944 135.049 77.755 135.107 74.1876 135.063C73.4948 135.058 72.8019 135.054 72.088 135.049C70.392 135.037 68.6961 135.019 67.0001 135C67.5416 136.663 67.5416 136.663 68.0939 138.359C68.563 139.823 69.0317 141.286 69.5001 142.75C69.7386 143.48 69.9771 144.209 70.2228 144.961C70.4484 145.67 70.674 146.379 70.9064 147.109C71.1159 147.759 71.3253 148.408 71.5412 149.077C72.0001 151 72.0001 151 72.0001 155C70.4417 155.688 70.4417 155.688 68.8517 156.391C67.846 156.835 67.846 156.835 66.82 157.288C65.3481 157.933 63.8731 158.571 62.3952 159.202C59.243 160.55 56.1975 161.89 53.2033 163.567C49.0505 165.789 46.986 166.247 42.3166 165.078C38.6317 163.724 35.245 162.243 32.0001 160C30.4456 155.958 31.4148 153.076 32.4533 148.957C33.6657 142.401 33.71 135.65 34.0001 129C36.4139 128.301 38.8303 127.615 41.2501 126.938C41.9321 126.738 42.614 126.539 43.3166 126.334C49.3257 124.671 52.0946 125.484 57.5626 128C60.0419 129.137 62.4072 130.136 65.0001 131C64.6579 130.13 64.6579 130.13 64.3087 129.242C61.7388 122.259 61.8501 118.136 64.9376 111.313C67.0884 107.599 68.8487 106.231 72.9376 104.938C77.9585 103.72 82.255 102.899 86.7736 105.75ZM75.0001 117C74.6701 119.31 74.3401 121.62 74.0001 124C75.6502 124 77.3001 124 79.0001 124C79.6601 121.03 80.3201 118.06 81.0001 115C78.9159 115 76.902 116.22 75.0001 117ZM45.0001 138C44.6007 140.522 44.2494 143.03 43.9376 145.563C43.8468 146.274 43.7559 146.984 43.6623 147.717C43.4378 149.477 43.2185 151.239 43.0001 153C46.2749 154.048 47.671 154.138 50.8947 152.785C51.8576 152.217 52.8205 151.648 53.8126 151.063C54.7885 150.497 55.7643 149.931 56.7697 149.348C57.5057 148.903 58.2418 148.458 59.0001 148C57.3633 142.32 57.3633 142.32 53.6251 138C50.8772 136.953 47.3553 135.645 45.0001 138Z" fill="url(#paint1_linear_4723_496)"/>
<path d="M119.375 62.4999C120.016 62.8338 120.657 63.1676 121.317 63.5116C122.884 64.3302 124.443 65.1635 126 65.9999C125.782 69.6825 125.419 73.3348 125 76.9999C124.811 78.7653 124.811 78.7653 124.617 80.5663C123.579 87.3442 122.464 91.3676 117 95.7499C115.36 96.8727 113.696 97.9625 112 98.9999C111.01 99.6599 110.02 100.32 109 101C106.057 101.447 103.099 101.37 100.125 101.375C99.3221 101.399 98.519 101.424 97.6916 101.449C93.8275 101.468 91.5906 101.359 88.2346 99.3163C85.7884 96.7803 83.4018 94.2533 81.1252 91.5624C80.3234 90.6356 79.5216 89.7087 78.6955 88.7538C77.0002 85.9999 77.0002 85.9999 77.09 83.5937C77.3904 82.7377 77.6908 81.8818 78.0002 80.9999C78.3495 79.8746 78.6989 78.7492 79.0588 77.5897C82.6809 67.9958 82.6809 67.9958 86.1994 65.3397C88.7783 64.314 91.301 63.6426 94.0002 62.9999C96.0867 62.2588 98.17 61.5087 100.25 60.7499C107.76 58.1112 112.415 58.7366 119.375 62.4999ZM93.0002 74.9999C90.8218 77.8475 89.7458 80.5078 89.0002 83.9999C90.5923 86.7292 91.4869 88.1943 94.0002 89.9999C99.6534 91.1622 104.404 90.7431 109.625 88.3124C113.7 84.2137 113.538 77.4463 114 71.9999C106.152 69.1361 100.272 70.8702 93.0002 74.9999Z" fill="url(#paint2_linear_4723_496)"/>
<path d="M130.988 100.008C136.2 102.578 139.538 108.955 142 114C142.275 118.073 141.372 121.196 140 125C139.755 126.185 139.51 127.369 139.258 128.59C137.665 132.909 136.311 133.746 132.188 135.688C122.641 139.717 112.399 137.645 103 134C99.4739 132.139 97.7341 130.81 95.5782 127.481C94.1962 119.16 98.731 110.515 102 103C106.259 102.947 110.19 102.923 114.375 103.75C119.159 104.38 122.477 102.899 126.738 100.813C129 100 129 100 130.988 100.008ZM123.203 113.992C120.285 115.327 117.943 115.195 114.75 115.125C113.672 115.107 112.595 115.089 111.484 115.07C110.255 115.036 110.255 115.036 109 115C108.34 117.31 107.68 119.62 107 122C110.427 125.427 115.313 125.484 120 126C123.245 125.908 126.064 125.468 129 124C129.544 121.947 129.544 121.947 129.75 119.563C129.897 118.358 129.897 118.358 130.047 117.129C130.241 114.78 130.241 114.78 128 113C125.096 112.758 125.096 112.758 123.203 113.992Z" fill="url(#paint3_linear_4723_496)"/>
<path d="M67 70C71.2467 73.7529 72.8233 75.9249 73.3086 81.625C73.6319 89.3822 73.8315 97.1 69.5742 103.883C62.9683 109.316 52.989 109.587 44.7422 110.269C41.3689 109.938 39.4553 108.836 36.625 107C35.751 106.443 34.877 105.886 33.9766 105.312C33.3243 104.879 32.672 104.446 32 104C32.204 101.858 32.4191 99.7164 32.6914 97.582C33.032 95.0313 33.032 95.0313 33.0898 92.5742C33.3419 89.9428 33.6398 88.2819 35 86C37.9582 84.3888 40.9257 83.3361 44.1094 82.2421C47.1201 80.9484 47.9729 80.264 49.5625 77.5C52.6695 72.1333 60.9097 67.4233 67 70ZM60 82C59.34 83.32 58.68 84.64 58 86C57.34 86 56.68 86 56 86C55.7641 86.62 55.5282 87.24 55.2852 87.8789C53.3058 91.1457 50.4858 91.5768 46.9961 92.7773C44.721 93.8645 44.721 93.8645 44.2227 96.6289C44.1492 97.4113 44.0757 98.1938 44 99C46.1046 98.6907 48.2087 98.3774 50.3125 98.0625C51.4843 97.8884 52.656 97.7144 53.8633 97.5351C57.0164 97.079 57.0164 97.079 60 96C62.0885 92.9295 62.2211 90.4008 62.125 86.75C62.0979 85.4119 62.0979 85.4119 62.0703 84.0468C62.0471 83.3714 62.0239 82.6959 62 82C61.34 82 60.68 82 60 82Z" fill="url(#paint4_linear_4723_496)"/>
<path d="M104.188 136.875C108.952 138.035 113.748 138.795 118.594 139.535C121 140 121 140 122 141C123.059 147.352 123.106 153.571 123 160C120.333 161 117.667 162 115 163C114.436 163.264 113.871 163.527 113.29 163.799C107.577 166.303 102.984 166.105 96.875 165.313C96.0075 165.22 95.1399 165.128 94.2461 165.033C89.5982 164.499 85.394 163.693 81 162C80.4952 159.584 79.996 157.168 79.5 154.75C79.3569 154.068 79.2138 153.386 79.0664 152.684C78.3875 149.354 78 146.417 78 143C80.3468 141.816 82.7006 140.653 85.0625 139.5C85.7193 139.166 86.3761 138.832 87.0527 138.488C92.8479 135.691 97.8912 135.241 104.188 136.875ZM90 149C90.33 150.32 90.66 151.64 91 153C94.7348 153.86 98.232 154.163 102.062 154.188C103.596 154.209 103.596 154.209 105.16 154.23C107.98 154.002 109.606 153.453 112 152C112 151.34 112 150.68 112 150C109.897 149.496 107.792 148.997 105.688 148.5C104.516 148.222 103.344 147.943 102.137 147.656C97.3898 146.663 94.5117 147.396 90 149Z" fill="url(#paint5_linear_4723_496)"/>
<path d="M35.9999 31C38.8978 31.2558 41.7922 31.529 44.6874 31.8125C45.504 31.8828 46.3207 31.953 47.162 32.0254C54.1029 32.7279 58.1178 34.578 62.6874 40C63.2688 40.6806 63.8502 41.3612 64.4491 42.0625C67.7807 46.2249 68.2296 48.4011 68.1249 53.6875C68.1069 54.867 68.0888 56.0465 68.0702 57.2617C68.047 58.1654 68.0238 59.069 67.9999 60C67.3399 60 66.6799 60 65.9999 60C65.5049 61.485 65.5049 61.485 64.9999 63C61.5555 66 61.5555 66 58.9999 66C58.6699 66.99 58.3399 67.98 57.9999 69C53.2699 70.8622 48.0375 71.2583 42.9999 71C40.1533 65.4392 37.5375 59.8507 35.1874 54.0625C34.8632 53.3155 34.539 52.5685 34.205 51.7988C31.9844 46.2877 31.4665 41.7936 32.9999 36C34.5624 32.9375 34.5624 32.9375 35.9999 31ZM43.9999 43C44.6568 46.7824 45.7201 50.2184 47.0624 53.8125C47.4247 54.7883 47.7869 55.7641 48.1601 56.7695C48.4372 57.5056 48.7144 58.2416 48.9999 59C52.6125 58.4086 52.6125 58.4086 55.8124 56.75C57.1393 55.0143 57.1393 55.0143 57.5624 52.6875C56.708 48.6052 54.4068 46.3205 50.9999 44C47.278 43.0367 47.278 43.0367 43.9999 43Z" fill="url(#paint6_linear_4723_496)"/>
<path d="M144 127C148.99 127.621 153.207 129.095 157.812 131C158.832 131.41 158.832 131.41 159.873 131.828C164.854 133.854 164.854 133.854 166 135C166.466 137.693 166.774 140.281 167 143C167.153 144.589 167.153 144.589 167.308 146.211C167.793 154.848 167.793 154.848 165.508 158.168C161.12 162 161.12 162 158 162C157.67 162.99 157.34 163.98 157 165C154.643 166.178 153.474 166.044 150.867 165.879C150.061 165.831 149.256 165.782 148.426 165.732C147.584 165.676 146.742 165.62 145.875 165.562C144.601 165.484 144.601 165.484 143.301 165.404C141.2 165.274 139.1 165.138 137 165C136.365 163.751 135.733 162.501 135.101 161.25C134.749 160.554 134.397 159.858 134.034 159.141C130.879 152.607 130.879 152.607 131 149C132.149 146.886 133.55 145.245 135.129 143.43C137.523 140.321 139.167 137.02 140.875 133.5C141.185 132.864 141.495 132.227 141.814 131.572C142.549 130.051 143.275 128.526 144 127ZM150 140C149.34 141.98 148.68 143.96 148 146C147.34 146 146.68 146 146 146C144.932 147.965 143.934 149.969 143 152C143.33 152.66 143.66 153.32 144 154C148.053 155.091 150.149 155.435 153.937 153.5C156.306 151.072 156.306 151.072 156.5 147.438C156.277 144.097 156.277 144.097 154.687 142.125C152.882 140.815 152.882 140.815 150 140Z" fill="url(#paint7_linear_4723_496)"/>
<path d="M111.227 34.9805C113 37 113 37 113.25 40.875C112.882 42.264 112.462 43.6395 112 45C111.706 46.1718 111.706 46.1718 111.406 47.3672C110.396 51.0348 109.432 53.5173 106.875 56.375C103.063 58.5298 99.259 59.9853 95 61C93.7367 61.3029 92.4734 61.6059 91.1719 61.918C87.7128 62.3165 86.0161 61.7438 83.1914 59.7266C81.9628 58.7153 80.7532 57.6806 79.5625 56.625C78.9392 56.1042 78.316 55.5834 77.6738 55.0469C71.7267 50.051 71.7267 50.051 71.25 46.0625C71.3425 41.2528 73.1982 38.9632 76.5 35.5625C86.6599 27.0651 100.933 26.585 111.227 34.9805ZM84 44C85.3698 47.1612 85.9891 47.9927 89 50C94.8919 49.6156 94.8919 49.6156 100 47C100.388 45.01 100.726 43.009 101 41C98.9173 40.9187 96.8337 40.8607 94.75 40.8125C93.5898 40.7777 92.4297 40.7429 91.2344 40.707C87.7773 41.0202 86.4843 41.6571 84 44Z" fill="url(#paint8_linear_4723_496)"/>
<defs>
<linearGradient id="paint0_linear_4723_496" x1="143.978" y1="29.4023" x2="143.978" y2="110" gradientUnits="userSpaceOnUse">
<stop stop-color="#555451"/>
<stop offset="1" stop-color="#8D8B84"/>
</linearGradient>
<linearGradient id="paint1_linear_4723_496" x1="62.5933" y1="103.818" x2="62.5933" y2="165.702" gradientUnits="userSpaceOnUse">
<stop stop-color="#555451"/>
<stop offset="1" stop-color="#8D8B84"/>
</linearGradient>
<linearGradient id="paint2_linear_4723_496" x1="101.53" y1="59.1416" x2="101.53" y2="101.451" gradientUnits="userSpaceOnUse">
<stop stop-color="#555451"/>
<stop offset="1" stop-color="#8D8B84"/>
</linearGradient>
<linearGradient id="paint3_linear_4723_496" x1="118.686" y1="100.007" x2="118.686" y2="137.887" gradientUnits="userSpaceOnUse">
<stop stop-color="#555451"/>
<stop offset="1" stop-color="#8D8B84"/>
</linearGradient>
<linearGradient id="paint4_linear_4723_496" x1="52.7301" y1="69.2747" x2="52.7301" y2="110.269" gradientUnits="userSpaceOnUse">
<stop stop-color="#555451"/>
<stop offset="1" stop-color="#8D8B84"/>
</linearGradient>
<linearGradient id="paint5_linear_4723_496" x1="100.519" y1="135.929" x2="100.519" y2="165.843" gradientUnits="userSpaceOnUse">
<stop stop-color="#555451"/>
<stop offset="1" stop-color="#8D8B84"/>
</linearGradient>
<linearGradient id="paint6_linear_4723_496" x1="50.1297" y1="31" x2="50.1297" y2="71.0712" gradientUnits="userSpaceOnUse">
<stop stop-color="#555451"/>
<stop offset="1" stop-color="#8D8B84"/>
</linearGradient>
<linearGradient id="paint7_linear_4723_496" x1="149.264" y1="127" x2="149.264" y2="165.986" gradientUnits="userSpaceOnUse">
<stop stop-color="#555451"/>
<stop offset="1" stop-color="#8D8B84"/>
</linearGradient>
<linearGradient id="paint8_linear_4723_496" x1="92.25" y1="28.9304" x2="92.25" y2="62.0368" gradientUnits="userSpaceOnUse">
<stop stop-color="#555451"/>
<stop offset="1" stop-color="#8D8B84"/>
</linearGradient>
</defs>
</svg>

<svg width="199" height="199" fill="none" xmlns="http://www.w3.org/2000/svg"><path d="M144.543 30.742 147 32l2.176.883c7.411 3.194 14.003 8.592 17.269 16.078 1.633 6.003-.676 11.706-3.445 17.039-2.88 3.423-5.179 4.681-9.5 5.75l-2.844.734C148 73 148 73 144 73v2l3.438-.188c4.55.556 6.338 2.72 9.187 6.188A216.63 216.63 0 0 1 167 96c-2.505 4.76-2.505 4.76-5.062 6-2.727 1.407-2.951 3.181-3.938 6l-2 2c-6.092-.193-10.554-2.523-15.812-5.437l-2.311-1.237c-7.465-4.046-7.465-4.046-8.729-7.97l-.773-3.168-.789-3.145c-1.304-6.774-1.304-6.774.805-10.5l1.859-2.356 1.828-2.394C134 72 134 72 138 72l-2.23-.637c-4.546-1.615-7.839-3-10.614-7.062C121.832 56.445 119.511 47.338 122 39c5.446-7.521 13.643-11.985 22.543-8.258Zm-9.293 11.195c-2.648 1.985-2.648 1.985-2.75 5.813.305 4.249 1.265 7.573 3.5 11.25 4.438 2.989 7.075 3.251 12.313 2.313 3.141-.708 4.378-1.004 6.687-3.313.926-2.367.926-2.367 1-5-3.199-5.746-7.873-9.035-14-11l-2.125-.875c-2.062-.258-2.062-.258-4.625.813ZM139 85c-.321 3.7-.321 3.7 1 7 3.792 2.494 7.81 4.275 12 6l1-3c-2.077-3.895-4.82-8.13-9.027-9.809-2.095-.327-2.095-.327-4.973-.191Z" fill="url(#a)"/><path d="m86.774 105.75 2.601 2.25 2.649 2.25L94 112c-1.469 5.752-3.053 11.474-4.875 17.125l-.867 2.758C87 134 87 134 84.856 134.801c-3.562.248-7.101.306-10.668.262l-2.1-.014c-1.696-.012-3.392-.03-5.088-.049l1.094 3.359 1.406 4.391.723 2.211.683 2.148.635 1.968c.46 1.923.46 1.923.46 5.923l-3.15 1.391-2.031.897a508.649 508.649 0 0 1-4.425 1.914c-3.152 1.348-6.198 2.688-9.192 4.365-4.153 2.222-6.217 2.68-10.886 1.511-3.685-1.354-7.072-2.835-10.317-5.078-1.554-4.042-.585-6.924.453-11.043C33.666 142.401 33.71 135.65 34 129c2.414-.699 4.83-1.385 7.25-2.062l2.067-.604c6.009-1.663 8.778-.85 14.246 1.666 2.479 1.137 4.844 2.136 7.437 3l-.691-1.758c-2.57-6.983-2.459-11.106.629-17.929 2.15-3.714 3.91-5.082 8-6.375 5.02-1.218 9.317-2.039 13.836.812ZM75 117l-1 7h5l2-9c-2.084 0-4.098 1.22-6 2Zm-30 21c-.4 2.522-.75 5.03-1.062 7.563l-.276 2.154c-.224 1.76-.444 3.522-.662 5.283 3.275 1.048 4.671 1.138 7.895-.215l2.918-1.722 2.957-1.715L59 148c-1.637-5.68-1.637-5.68-5.375-10-2.748-1.047-6.27-2.355-8.625 0Z" fill="url(#b)"/><path d="m119.375 62.5 1.942 1.012c1.567.818 3.126 1.651 4.683 2.488-.218 3.683-.581 7.335-1 11l-.383 3.566c-1.038 6.778-2.153 10.802-7.617 15.184a116.097 116.097 0 0 1-5 3.25l-3 2c-2.943.447-5.901.37-8.875.375l-2.433.074c-3.864.019-6.101-.09-9.457-2.133-2.447-2.536-4.833-5.063-7.11-7.754l-2.43-2.808C77 86 77 86 77.09 83.594L78 81l1.059-3.41c3.622-9.594 3.622-9.594 7.14-12.25C88.78 64.314 91.301 63.643 94 63a780.02 780.02 0 0 0 6.25-2.25c7.51-2.639 12.165-2.013 19.125 1.75ZM93 75c-2.178 2.847-3.254 5.508-4 9 1.592 2.73 2.487 4.194 5 6 5.653 1.162 10.404.743 15.625-1.688C113.7 84.214 113.538 77.446 114 72c-7.848-2.864-13.728-1.13-21 3Z" fill="url(#c)"/><path d="M130.988 100.008c5.212 2.57 8.55 8.947 11.012 13.992.275 4.073-.628 7.196-2 11l-.742 3.59c-1.593 4.319-2.947 5.156-7.07 7.098-9.547 4.029-19.789 1.957-29.188-1.688-3.526-1.861-5.266-3.19-7.422-6.519C94.196 119.16 98.731 110.515 102 103c4.259-.053 8.19-.077 12.375.75 4.784.63 8.102-.851 12.363-2.937 2.262-.813 2.262-.813 4.25-.805Zm-7.785 13.984c-2.918 1.335-5.26 1.203-8.453 1.133l-3.266-.055L109 115l-2 7c3.427 3.427 8.313 3.484 13 4 3.245-.092 6.064-.532 9-2 .544-2.053.544-2.053.75-4.437l.297-2.434c.194-2.349.194-2.349-2.047-4.129-2.904-.242-2.904-.242-4.797.992Z" fill="url(#d)"/><path d="M67 70c4.247 3.753 5.823 5.925 6.309 11.625.323 7.757.523 15.475-3.735 22.258-6.606 5.433-16.585 5.704-24.832 6.386-3.373-.331-5.287-1.433-8.117-3.269l-2.648-1.688L32 104c.204-2.142.42-4.284.691-6.418.341-2.55.341-2.55.399-5.008.252-2.631.55-4.292 1.91-6.574 2.958-1.611 5.926-2.664 9.11-3.758 3.01-1.294 3.863-1.978 5.453-4.742C52.669 72.133 60.91 67.423 67 70Zm-7 12-2 4h-2l-.715 1.879c-1.98 3.267-4.8 3.698-8.289 4.898-2.275 1.088-2.275 1.088-2.773 3.852L44 99c2.105-.31 4.209-.623 6.313-.938l3.55-.527C57.016 97.08 57.016 97.08 60 96c2.089-3.07 2.221-5.6 2.125-9.25l-.055-2.703L62 82h-2Z" fill="url(#e)"/><path d="M104.188 136.875c4.764 1.16 9.56 1.92 14.406 2.66C121 140 121 140 122 141c1.059 6.352 1.106 12.571 1 19l-8 3-1.71.799c-5.713 2.504-10.306 2.306-16.415 1.514l-2.629-.28c-4.648-.534-8.852-1.34-13.246-3.033-.505-2.416-1.004-4.832-1.5-7.25l-.434-2.066C78.388 149.354 78 146.417 78 143c2.347-1.184 4.7-2.347 7.063-3.5l1.99-1.012c5.795-2.797 10.838-3.247 17.135-1.613ZM90 149l1 4c3.735.86 7.232 1.163 11.062 1.188l3.098.042c2.82-.228 4.446-.777 6.84-2.23v-2c-2.103-.504-4.208-1.003-6.312-1.5l-3.551-.844c-4.747-.993-7.625-.26-12.137 1.344Z" fill="url(#f)"/><path d="M36 31c2.898.256 5.792.529 8.687.813l2.475.212c6.94.703 10.956 2.553 15.525 7.975l1.762 2.063c3.332 4.162 3.78 6.338 3.676 11.624l-.055 3.575L68 60h-2l-1 3c-3.444 3-3.444 3-6 3l-1 3c-4.73 1.862-9.962 2.258-15 2-2.847-5.56-5.462-11.15-7.813-16.938l-.982-2.263C31.985 46.288 31.467 41.794 33 36c1.562-3.063 1.562-3.063 3-5Zm8 12c.657 3.782 1.72 7.218 3.062 10.813l1.098 2.956L49 59c3.612-.591 3.612-.591 6.812-2.25 1.327-1.736 1.327-1.736 1.75-4.063C56.708 48.605 54.407 46.322 51 44c-3.722-.963-3.722-.963-7-1Z" fill="url(#g)"/><path d="M144 127c4.99.621 9.207 2.095 13.812 4l2.061.828c4.981 2.026 4.981 2.026 6.127 3.172a89.81 89.81 0 0 1 1 8l.308 3.211c.485 8.637.485 8.637-1.8 11.957C161.12 162 161.12 162 158 162l-1 3c-2.357 1.178-3.526 1.044-6.133.879l-2.441-.147-2.551-.17-2.574-.158c-2.101-.13-4.201-.266-6.301-.404-.635-1.249-1.267-2.499-1.899-3.75l-1.067-2.109c-3.155-6.534-3.155-6.534-3.034-10.141 1.149-2.114 2.55-3.755 4.129-5.57 2.394-3.109 4.038-6.41 5.746-9.93l.939-1.928A765.804 765.804 0 0 0 144 127Zm6 13-2 6h-2a100.45 100.45 0 0 0-3 6l1 2c4.053 1.091 6.149 1.435 9.937-.5 2.369-2.428 2.369-2.428 2.563-6.062-.223-3.341-.223-3.341-1.813-5.313-1.805-1.31-1.805-1.31-4.687-2.125Z" fill="url(#h)"/><path d="M111.227 34.98C113 37 113 37 113.25 40.876A63.064 63.064 0 0 1 112 45l-.594 2.367c-1.01 3.668-1.974 6.15-4.531 9.008C103.063 58.53 99.259 59.985 95 61l-3.828.918c-3.46.398-5.156-.174-7.98-2.191a130.307 130.307 0 0 1-3.63-3.102l-1.888-1.578c-5.947-4.996-5.947-4.996-6.424-8.984.093-4.81 1.948-7.1 5.25-10.5 10.16-8.498 24.433-8.978 34.727-.583ZM84 44c1.37 3.161 1.99 3.993 5 6 5.892-.384 5.892-.384 11-3 .388-1.99.726-3.991 1-6a393.56 393.56 0 0 0-6.25-.188l-3.516-.105c-3.457.313-4.75.95-7.234 3.293Z" fill="url(#i)"/><defs><linearGradient id="a" x1="143.978" y1="29.402" x2="143.978" y2="110" gradientUnits="userSpaceOnUse"><stop stop-color="#555451"/><stop offset="1" stop-color="#8D8B84"/></linearGradient><linearGradient id="b" x1="62.593" y1="103.818" x2="62.593" y2="165.702" gradientUnits="userSpaceOnUse"><stop stop-color="#555451"/><stop offset="1" stop-color="#8D8B84"/></linearGradient><linearGradient id="c" x1="101.53" y1="59.142" x2="101.53" y2="101.451" gradientUnits="userSpaceOnUse"><stop stop-color="#555451"/><stop offset="1" stop-color="#8D8B84"/></linearGradient><linearGradient id="d" x1="118.686" y1="100.007" x2="118.686" y2="137.887" gradientUnits="userSpaceOnUse"><stop stop-color="#555451"/><stop offset="1" stop-color="#8D8B84"/></linearGradient><linearGradient id="e" x1="52.73" y1="69.275" x2="52.73" y2="110.269" gradientUnits="userSpaceOnUse"><stop stop-color="#555451"/><stop offset="1" stop-color="#8D8B84"/></linearGradient><linearGradient id="f" x1="100.519" y1="135.929" x2="100.519" y2="165.843" gradientUnits="userSpaceOnUse"><stop stop-color="#555451"/><stop offset="1" stop-color="#8D8B84"/></linearGradient><linearGradient id="g" x1="50.13" y1="31" x2="50.13" y2="71.071" gradientUnits="userSpaceOnUse"><stop stop-color="#555451"/><stop offset="1" stop-color="#8D8B84"/></linearGradient><linearGradient id="h" x1="149.264" y1="127" x2="149.264" y2="165.986" gradientUnits="userSpaceOnUse"><stop stop-color="#555451"/><stop offset="1" stop-color="#8D8B84"/></linearGradient><linearGradient id="i" x1="92.25" y1="28.93" x2="92.25" y2="62.037" gradientUnits="userSpaceOnUse"><stop stop-color="#555451"/><stop offset="1" stop-color="#8D8B84"/></linearGradient></defs></svg>
